X: 1104
T: Come In From the Rain   #2
R: double jig
%S: s:2 b:16(8+8)
O: J.O'Neill
B: O'Neill's 1850 #1104
Z: henrik.norbeck@mailbox.swipnet.se
M: 6/8
L: 1/8
K: Em
"^A"[|] A |: B2E EFE | d3 [1,3 A2G | F2D DED | F2G A2c :|[2,4 e2f | g2e f2^d | e3 e2 :|
"^B"|: f | gfe b2e | gfe b2e |[1,3 f2d A2g | f2g a2 :|[2,4 f2d Bc^d | e3 e2 :|
